src/images/icons.svg

<svg aria-hidden="true" style="position: absolute; width: 0; height: 0; overflow: hidden;" version="1.1" xmlns="http://www.w3.org/2000/svg" xmlns:xlink="http://www.w3.org/1999/xlink">
<defs>
<symbol id="hamburger" viewBox="0 0 32 33">
<line x1="6.36963" y1="8.87878" x2="30.5001" y2="8.87878" stroke="#121417" stroke-width="3" stroke-linecap="round"/>
<line x1="6.36963" y1="22.8182" x2="30.5001" y2="22.8182" stroke="#121417" stroke-width="3" stroke-linecap="round"/>
<line x1="14.0217" y1="15.8485" x2="30.5" y2="15.8485" stroke="#121417" stroke-width="3" stroke-linecap="round"/>
</symbol>
<symbol id="close" viewBox="0 0 32 32">
<path d="M24 8L8 24" stroke="white" stroke-width="3" stroke-linecap="round" stroke-linejoin="round"/>
<path d="M8 8L24 24" stroke="white" stroke-width="3" stroke-linecap="round" stroke-linejoin="round"/>
</symbol>
<symbol id="youtube" viewBox="0 0 32 32">
<path d="M24.24 6c-1.36-0.080-4.16-0.16-8.4-0.16h-0.56c-4.080 0-6.8 0.080-8.16 0.24-1.84 0.16-3.12 0.64-3.84 1.28-0.64 0.56-1.12 1.6-1.28 2.96-0.080 0.88-0.16 2.72-0.16 5.52v0.4c0 2.64 0.080 4.48 0.24 5.36 0.24 1.28 0.64 2.24 1.44 2.8 0.8 0.64 2.16 1.040 4.080 1.2 1.36 0.080 4.16 0.16 8.4 0.16h0.56c4.080 0 6.8-0.080 8.16-0.24 1.84-0.16 3.12-0.64 3.84-1.28 0.64-0.56 1.12-1.6 1.28-2.96 0.080-0.88 0.16-2.72 0.16-5.52v-0.4c0-2.64-0.080-4.48-0.24-5.36-0.24-1.28-0.64-2.24-1.44-2.8-0.8-0.64-2.16-1.040-4.080-1.2zM21.12 15.84l-8.8 5.28v-10.56l8.8 5.28z"></path>
</symbol>
<symbol id="instagram" viewBox="0 0 32 32">
<path d="M28.718 10.756c-0.016-1.074-0.215-2.14-0.596-3.145-0.667-1.716-2.024-3.073-3.743-3.737-0.994-0.373-2.044-0.573-3.108-0.596-1.368-0.061-1.801-0.078-5.273-0.078s-3.916 0-5.274 0.078c-1.062 0.023-2.113 0.223-3.106 0.596-1.719 0.664-3.078 2.021-3.743 3.737-0.374 0.992-0.576 2.041-0.596 3.101-0.061 1.367-0.080 1.8-0.080 5.265s0 3.909 0.080 5.265c0.021 1.062 0.222 2.109 0.596 3.104 0.667 1.714 2.024 3.071 3.744 3.735 0.989 0.386 2.040 0.605 3.106 0.639 1.369 0.061 1.803 0.079 5.274 0.079s3.916 0 5.274-0.079c1.062-0.021 2.112-0.221 3.108-0.595 1.719-0.666 3.076-2.022 3.743-3.737 0.374-0.994 0.574-2.041 0.596-3.104 0.061-1.365 0.080-1.798 0.080-5.265-0.003-3.466-0.003-3.906-0.082-5.264zM15.99 22.531c-3.631 0-6.572-2.936-6.572-6.561s2.941-6.561 6.572-6.561c3.628 0 6.572 2.936 6.572 6.561s-2.944 6.561-6.572 6.561zM22.824 10.696c-0.849 0-1.532-0.684-1.532-1.53s0.684-1.53 1.532-1.53c0.846 0 1.531 0.684 1.531 1.53s-0.685 1.53-1.531 1.53z"></path>
<path d="M15.992 19.976c2.211 0 4.004-1.793 4.004-4.004s-1.793-4.004-4.004-4.004c-2.211 0-4.004 1.793-4.004 4.004s1.793 4.004 4.004 4.004z"></path>
</symbol>
<symbol id="facebook" viewBox="0 0 32 32">
<path d="M19.52 4.64c0.24 0 0.48 0 0.96 0v3.6c-0.24 0-0.72 0-1.2 0s-0.96 0-1.2 0.24c-0.24 0.24-0.24 0.48-0.24 1.040 0 0.48 0 0.8 0 1.28h2.64v3.040h-2.64v13.2h-4.080v-13.28h-2.16v-3.040h2.16v-1.040c0-1.76 0.24-3.040 0.72-3.6 0.72-1.040 2.16-1.52 4.32-1.52 0.24 0.080 0.48 0.080 0.72 0.080z"></path>
</symbol>
<symbol id="arrow_down" viewBox="0 0 56 32">
<path d="M30.84 21.6c-0.372 0.375-0.814 0.672-1.302 0.876s-1.010 0.308-1.538 0.308c-0.528 0-1.051-0.105-1.538-0.308s-0.93-0.501-1.302-0.876l-18.32-18.36c-0.372-0.375-0.814-0.672-1.302-0.876s-1.010-0.308-1.538-0.308c-0.528 0-1.051 0.105-1.538 0.308s-0.93 0.501-1.302 0.876c-0.745 0.749-1.163 1.763-1.163 2.82s0.418 2.071 1.163 2.82l18.36 18.36c2.25 2.247 5.3 3.509 8.48 3.509s6.23-1.262 8.48-3.509l18.36-18.36c0.739-0.745 1.156-1.751 1.16-2.8 0.003-0.526-0.098-1.048-0.297-1.536s-0.492-0.931-0.863-1.304c-0.372-0.375-0.814-0.672-1.302-0.876s-1.010-0.308-1.538-0.308-1.051 0.105-1.538 0.308c-0.488 0.203-0.93 0.501-1.302 0.876l-18.32 18.36z"></path>
</symbol>
<symbol id="check_mark" viewBox="0 0 43 32">
<path fill="none" stroke="#fff" stroke-width="5.3333" stroke-miterlimit="4" stroke-linecap="round" stroke-linejoin="round" d="M39.111 2.667l-24.445 24.445-11.111-11.111"></path>
</symbol>
<symbol id="deal-icon" viewBox="0 0 20 20" fill="none">
    <path d="M14 7L8.5 13L6 10.2727" stroke="white" stroke-width="1.5" stroke-linecap="round" stroke-linejoin="round"/>
</symbol>
<symbol id="deal-icon-circle" viewBox="0 0 20 20">
    <circle cx="10" cy="10" r="10" fill="#4DC274"/>
</symbol>
<symbol id="deal-splash"  viewBox="0 0 36 37" fill="none">
  <path fill-rule="evenodd" clip-rule="evenodd" d="M2.09728 0.800912C2.75889 0.302352 3.69939 0.434531 4.19795 1.09614L9.01248 7.48523C9.51103 8.14684 9.37886 9.08734 8.71724 9.5859C8.05563 10.0845 7.11513 9.95228 6.61657 9.29067L1.80205 2.90159C1.30349 2.23998 1.43567 1.29947 2.09728 0.800912ZM2 17.4989C1.17157 17.4989 0.5 18.1704 0.5 18.9989C0.5 19.8273 1.17157 20.4989 2 20.4989H4C4.82843 20.4989 5.5 19.8273 5.5 18.9989C5.5 18.1704 4.82843 17.4989 4 17.4989H2ZM32 17.4989C31.1716 17.4989 30.5 18.1704 30.5 18.9989C30.5 19.8273 31.1716 20.4989 32 20.4989H34C34.8284 20.4989 35.5 19.8273 35.5 18.9989C35.5 18.1704 34.8284 17.4989 34 17.4989H32ZM29.198 28.0961C28.6994 27.4345 27.7589 27.3024 27.0973 27.8009C26.4357 28.2995 26.3035 29.24 26.802 29.9016L31.6166 36.2907C32.1151 36.9523 33.0556 37.0845 33.7172 36.5859C34.3789 36.0873 34.511 35.1468 34.0125 34.4852L29.198 28.0961ZM27.0973 9.58598C26.4357 9.08742 26.3035 8.14691 26.802 7.4853L31.6166 1.09622C32.1151 0.434606 33.0556 0.302426 33.7172 0.800986C34.3789 1.29955 34.511 2.24005 34.0125 2.90166L29.198 9.29075C28.6994 9.95236 27.7589 10.0845 27.0973 9.58598ZM1.80205 34.4853C1.30349 35.1469 1.43567 36.0874 2.09728 36.586C2.75889 37.0845 3.69939 36.9524 4.19795 36.2907L9.01248 29.9017C9.51103 29.2401 9.37886 28.2995 8.71724 27.801C8.05563 27.3024 7.11513 27.4346 6.61657 28.0962L1.80205 34.4853ZM18 31.4989C18.8284 31.4989 19.5 32.1704 19.5 32.9989V34.9989C19.5 35.8273 18.8284 36.4989 18 36.4989C17.1716 36.4989 16.5 35.8273 16.5 34.9989V32.9989C16.5 32.1704 17.1716 31.4989 18 31.4989ZM19.5 2.99887C19.5 2.17044 18.8284 1.49886 18 1.49886C17.1716 1.49886 16.5 2.17044 16.5 2.99887V4.99887C16.5 5.82729 17.1716 6.49887 18 6.49887C18.8284 6.49887 19.5 5.82729 19.5 4.99887V2.99887Z" fill="#4DC274"/>
</symbol>
</defs>
</svg>

<svg xmlns="http://www.w3.org/2000/svg" aria-hidden="true" style="position:absolute;width:0;height:0;overflow:hidden"><defs><symbol id="hamburger" viewBox="0 0 32 33"><path stroke="#121417" stroke-linecap="round" stroke-width="3" d="M6.37 8.879H30.5M6.37 22.818H30.5M14.022 15.848H30.5"/></symbol><symbol id="close" viewBox="0 0 32 32"><path stroke="#fff" stroke-linecap="round" stroke-linejoin="round" stroke-width="3" d="M24 8 8 24M8 8l16 16"/></symbol><symbol id="youtube" viewBox="0 0 32 32"><path d="M24.24 6c-1.36-.08-4.16-.16-8.4-.16h-.56c-4.08 0-6.8.08-8.16.24-1.84.16-3.12.64-3.84 1.28-.64.56-1.12 1.6-1.28 2.96-.08.88-.16 2.72-.16 5.52v.4c0 2.64.08 4.48.24 5.36.24 1.28.64 2.24 1.44 2.8.8.64 2.16 1.04 4.08 1.2 1.36.08 4.16.16 8.4.16h.56c4.08 0 6.8-.08 8.16-.24 1.84-.16 3.12-.64 3.84-1.28.64-.56 1.12-1.6 1.28-2.96.08-.88.16-2.72.16-5.52v-.4c0-2.64-.08-4.48-.24-5.36-.24-1.28-.64-2.24-1.44-2.8-.8-.64-2.16-1.04-4.08-1.2zm-3.12 9.84-8.8 5.28V10.56l8.8 5.28z"/></symbol><symbol id="instagram" viewBox="0 0 32 32"><path d="M28.718 10.756a9.264 9.264 0 0 0-.596-3.145 6.547 6.547 0 0 0-3.743-3.737 9.42 9.42 0 0 0-3.108-.596c-1.368-.061-1.801-.078-5.273-.078s-3.916 0-5.274.078a9.413 9.413 0 0 0-3.106.596 6.541 6.541 0 0 0-3.743 3.737 9.288 9.288 0 0 0-.596 3.101c-.061 1.367-.08 1.8-.08 5.265s0 3.909.08 5.265a9.335 9.335 0 0 0 .596 3.104 6.548 6.548 0 0 0 3.744 3.735 9.37 9.37 0 0 0 3.106.639c1.369.061 1.803.079 5.274.079s3.916 0 5.274-.079a9.362 9.362 0 0 0 3.108-.595 6.555 6.555 0 0 0 3.743-3.737 9.35 9.35 0 0 0 .596-3.104c.061-1.365.08-1.798.08-5.265-.003-3.466-.003-3.906-.082-5.264zM15.99 22.531c-3.631 0-6.572-2.936-6.572-6.561s2.941-6.561 6.572-6.561c3.628 0 6.572 2.936 6.572 6.561s-2.944 6.561-6.572 6.561zm6.834-11.835a1.53 1.53 0 1 1 0-3.06 1.53 1.53 0 1 1 0 3.06z"/><path d="M15.992 19.976a4.004 4.004 0 1 0 0-8.009 4.004 4.004 0 0 0 0 8.009z"/></symbol><symbol id="facebook" viewBox="0 0 32 32"><path d="M19.52 4.64h.96v3.6h-1.2c-.48 0-.96 0-1.2.24s-.24.48-.24 1.04v1.28h2.64v3.04h-2.64v13.2h-4.08V13.76H11.6v-3.04h2.16V9.68c0-1.76.24-3.04.72-3.6.72-1.04 2.16-1.52 4.32-1.52.24.08.48.08.72.08z"/></symbol><symbol id="arrow_down" viewBox="0 0 56 32"><path d="M30.84 21.6A4.011 4.011 0 0 1 28 22.784a3.999 3.999 0 0 1-2.84-1.184L6.84 3.24A4.011 4.011 0 0 0 4 2.056 3.999 3.999 0 0 0 1.16 3.24a3.999 3.999 0 0 0 0 5.64l18.36 18.36a12 12 0 0 0 16.96 0L54.84 8.88a4.008 4.008 0 0 0 0-5.64A4.011 4.011 0 0 0 52 2.056a3.999 3.999 0 0 0-2.84 1.184L30.84 21.6z"/></symbol><symbol id="check_mark" viewBox="0 0 43 32"><path fill="none" stroke="#fff" stroke-linecap="round" stroke-linejoin="round" stroke-width="5.333" d="M39.111 2.667 14.666 27.112 3.555 16.001"/></symbol><symbol id="deal-icon" fill="none" viewBox="0 0 20 20"><path stroke="#fff" stroke-linecap="round" stroke-linejoin="round" stroke-width="1.5" d="m14 7-5.5 6L6 10.273"/></symbol><symbol id="deal-icon-circle" viewBox="0 0 20 20"><circle cx="10" cy="10" r="10" fill="#4DC274"/></symbol><symbol id="deal-splash" fill="none" viewBox="0 0 36 37"><path fill="#4DC274" fill-rule="evenodd" d="M2.097.8a1.5 1.5 0 0 1 2.1.296l4.815 6.39A1.5 1.5 0 0 1 6.617 9.29L1.802 2.9a1.5 1.5 0 0 1 .295-2.1ZM2 17.5a1.5 1.5 0 1 0 0 3h2a1.5 1.5 0 0 0 0-3H2Zm30 0a1.5 1.5 0 1 0 0 3h2a1.5 1.5 0 0 0 0-3h-2Zm-2.802 10.597a1.5 1.5 0 0 0-2.396 1.806l4.815 6.389a1.5 1.5 0 1 0 2.396-1.806l-4.815-6.389Zm-2.1-18.51a1.5 1.5 0 0 1-.296-2.1l4.815-6.39a1.5 1.5 0 1 1 2.396 1.806L29.198 9.29a1.5 1.5 0 0 1-2.1.295Zm-25.296 24.9a1.5 1.5 0 0 0 2.396 1.805l4.814-6.39a1.5 1.5 0 0 0-2.395-1.805l-4.815 6.39ZM18 31.498a1.5 1.5 0 0 1 1.5 1.5v2a1.5 1.5 0 0 1-3 0v-2a1.5 1.5 0 0 1 1.5-1.5Zm1.5-28.5a1.5 1.5 0 0 0-3 0v2a1.5 1.5 0 0 0 3 0v-2Z" clip-rule="evenodd"/></symbol></defs></svg>
